X: 22640
T: Laird O' Thrums, The
R: strathspey
M: 4/4
K: Amajor
(3agf (3efg a2 ed|c<e AB c<B Bg|(3agf (3efg a2 ec|
d<f Bd c<A Ag|(3agf (3efg a2 ed|c<e AB c<B Bg|
(3agf (3gfe (3fed (3edc|(3def (3Bcd c<A ag||
f2 cf Af F2|fg (3agf (3c'fg (3agf|e2 Be Ge E2|
ef (3gfe (3bef (3gfe|a2 ea ca Ag|(3afa (3geg (3fdf ec|
(3def (3Bcd (3cde (3ABc|(3Bcd (3efg a<A A2||

